X:1
T:Byker Hill (versions)
H:Used for Northumberland Gypsy
R:reel
M:C|
L:1/4
P:AB(AB2)4
K:Em
P:A
BBBA|BddB|A>AAG/A/|BddB|
e>eed|efg2|gdBA|GFE2|]
P:B
eeed/e/|gee/d/B|AAAG/G/|BddB|
eeed/e/|gee/d/B|eBde/d/|BAB2|]
